X:477
T:Vallåtstoner, Polska
R:Polska
Z:Håkan Lidén, 2008-09-26
O:Orsa, Dalarna
D:Björn Ståbi, Orsalåtar, Giga GCD-35 (#3)
N:Orsa
M:3/4
L:1/8
K:Ddor
A>d f>e d>e | (3^cBc d2 e2 | ^f/e/f/g/ ab g>e | (3^f2 e2 ^c2 A2- |
A>d f>e d>e | (3^cBc d2 e2 | ^f/e/f/g/ ab g>e | (3=fag e4 :|
|: A>a g>b a>e | f>a g/f/g/b/ a>e |(3:2:4fa g2 b2 a>e | f>a g/f/g/b/ a2 |
f/e/f/g/ e>f d>e | (3^cBc d>e f/e/f/g/ | a/b/a/g/ e>f d>e | (3^cBc d4 :|]
(:musicend:)

Kallas denna verkligen för Orsa storpolska? Jag spelar en låt med samma namn som inte alls går så här /Jon Magnusson
[[<<]]
%blue%Jag blir lite osäker, jag har skrivit ner polskan från en skiva som jag inte längre hittar, och kan mycket väl fått titeln om bakfoten. Skivan är i alla fall med Björn Ståbi (ensam) och han spelar orsalåtar. Om någon känner igen låten och har rätt titel blir jag tacksam /Håkan
(:music:)
